Newaita/actions/16/call-stop.svg

<svg xmlns="http://www.w3.org/2000/svg" xmlns:xlink="http://www.w3.org/1999/xlink" width="16px" height="16px" viewBox="0 0 16 16" version="1.1">
<g id="surface1">
<path style=" stroke:none;fill-rule:nonzero;fill:rgb(95.686275%,26.274511%,21.176471%);fill-opacity:0.986348;" d="M 1.652344 8.726562 L 4.960938 8.726562 C 5.328125 8.726562 5.621094 9.019531 5.621094 9.386719 L 5.621094 10.046875 C 5.621094 10.414062 5.328125 10.710938 4.960938 10.710938 L 1.652344 10.710938 C 1.289062 10.710938 0.992188 10.414062 0.992188 10.046875 L 0.992188 9.386719 C 0.992188 9.019531 1.289062 8.726562 1.652344 8.726562 Z M 1.652344 8.726562 "/>
<path style=" stroke:none;fill-rule:nonzero;fill:rgb(95.686275%,26.274511%,21.176471%);fill-opacity:1;" d="M 7.9375 5.417969 C 6.613281 5.417969 1.652344 5.417969 1.652344 8.394531 L 4.960938 8.394531 C 4.960938 7.402344 6.613281 6.738281 7.9375 6.738281 C 9.261719 6.738281 10.914062 7.402344 10.914062 8.394531 L 14.222656 8.394531 C 14.222656 5.417969 9.261719 5.417969 7.9375 5.417969 Z M 7.9375 5.417969 "/>
<path style=" stroke:none;fill-rule:nonzero;fill:rgb(95.686275%,26.274511%,21.176471%);fill-opacity:0.986348;" d="M 14.222656 8.726562 L 10.914062 8.726562 C 10.550781 8.726562 10.253906 9.019531 10.253906 9.386719 L 10.253906 10.046875 C 10.253906 10.414062 10.550781 10.710938 10.914062 10.710938 L 14.222656 10.710938 C 14.589844 10.710938 14.882812 10.414062 14.882812 10.046875 L 14.882812 9.386719 C 14.882812 9.019531 14.589844 8.726562 14.222656 8.726562 Z M 14.222656 8.726562 "/>
</g>
</svg>

<svg xmlns="http://www.w3.org/2000/svg" width="16pt" height="16pt" viewBox="0 0 16 16"><g fill="#ef5350"><path d="M1.652 8.727h3.309c.367 0 .66.293.66.66v.66a.66.66 0 0 1-.66.664H1.652a.663.663 0 0 1-.66-.664v-.66a.66.66 0 0 1 .66-.66zm0 0" fill-opacity=".988"/><path d="M7.938 5.418c-1.325 0-6.286 0-6.286 2.977h3.309c0-.993 1.652-1.657 2.976-1.657 1.325 0 2.977.664 2.977 1.657h3.309c0-2.977-4.961-2.977-6.286-2.977zm0 0"/><path d="M14.223 8.727h-3.309a.66.66 0 0 0-.66.66v.66c0 .367.297.664.66.664h3.309a.66.66 0 0 0 .66-.664v-.66a.657.657 0 0 0-.66-.66zm0 0" fill-opacity=".988"/></g></svg>
